X:1
T:Come, Listen to the Story
T:Come, Listen to the Story
T:James Baden Powell
T:Henry Knight, 1904
T:Public Domain Courtesy of the Cyber Hymnal™
T:Public Domain Courtesy of the Cyber Hymnal™
C:James Baden Powell
Z:Public Domain
Z:Courtesy of the Cyber Hymnal™
%%score ( 1 2 ) ( 3 4 )
L:1/8
Q:1/4=107
M:9/8
K:Ab
V:1 treble 
V:2 treble 
V:3 bass 
V:4 bass 
V:1
"^Andantino. Very smoothly." [CE]3 | ([CE]3- [CE][A,C])[B,D] ([CE][DF])[DG] | %2
w: 1.~Come,|lis- * * ten to * the|
w: 2.~Be-|hold! * * while earth * is|
w: 3.~And|ere * * the morn * is|
w: 4.~So|runs * * the Gos- * pel|
 [CA]3 [CE]2 E [CF]2 [=DG] | [CE]3- [CE] z!pp! E [EF]2 [=DG] E3 z3"^Quartet" E3 | %4
w: sto- ry Of Je- su’s|birth, * of Je- su’s birth; How|
w: sleep- ing A- mid the|snows, * a- mid the snows; While|
w: break- ing A- cross the|world, * a- cross the world; The|
w: sto- ry Of that sweet|morn, * of that sweet morn; Ere|
 ([DF]3- FD)[DE] (FG)[CA] | [B,B]3 [B,F]2 [B,F] [B,G]2 [B,A] | %6
w: Christ, * * the King * of|glo- ry, Came down to|
w: an- * * gels watch * are|kee- ping, There blooms a|
w: shep- * * herds, flocks * for-|sak- ing, With won- der|
w: found * * the Ro- * se’s|glo- ry Had tarried the|
 [A,F]3- [A,F]!pp! z"^Chorus" [B,F] [B,G]2 [B,A] | [A,F]3- [A,F]2"^Quartet" z [=Ec]3 | %8
w: earth, * came down to|earth; * Left|
w: Rose, * there blooms a|Rose; * And|
w: bold, * with won- der|bold; * Draw|
w: thorn, * had tarried the|thorn; * And|
 [Fc]3- [Fc]2 [FB] (AB)[Fc] | (d2 c) [GB]2 [FA] [DG]2 [DF] | %10
w: Heav’n * all pure * and|ho- * ly To do God’s|
w: Ma- * ry makes * a|bow- * er With- in her|
w: near * in a- * do-|ra- * tion Their praise to|
w: now * to Heaven * trans-|plant- * ed Its bliss to|
 [C=E]3- [CE] z!pp! [CA]"^Chorus" [=B,G]2 [=DF] | [C=E]3 z3"^Quartet" C3 | %12
w: will, * to do God’s|will; Who|
w: breast, * with- in her|breast; For|
w: pour, * their praise to|pour; To|
w: share, * its bliss to|share; Our|
 [Fc]3- [Fc]2 [GB] A[GB][Ac] | e2 d [Ec]2 [Af] [Ge]2 [Bd] | %14
w: with * the meek and low-|* * ly, Is dwell- ing|
w: that * ce- les- tial Flow-|* * er, Her Sav- ior|
w: of- * fer an o- bla-|* * tion That Babe be-|
w: God, * to us hath grant-|* * ed, Here- af- ter|
 [Ac]3- [Ac] z!pp! E"^Chorus" [DF]2 [DG] | [CA]3- [CA]2 z |] %16
w: still, * is dwell- ing|still. *|
w: blest, * her Sav- ior|blest. *|
w: fore, * that Babe be-|fore. *|
w: there, * here- af- ter|there. *|
V:2
 x3 | x9 | x5 E x3 | x5 E x2 E3 E3 x4 | x3 D2 D2 x2 | x9 | x9 | x9 | x6 F2 x | F3 x6 | x9 | x6 C3 | %12
 x6 A x2 | E3 x6 | x5 E x3 | x6 |] %16
V:3
 A,3 | A,3- A,2 A, A,2 [A,B,] | [A,C]3 A,2 [A,C] [A,C]2 [G,=B,] | %3
 [C,G,]3- [C,G,] z!pp! [C,G,] [_C,A,]2 [B,,A,] [E,G,]3 z3 [E,G,]3 | %4
 ([E,A,]3- A,F,)[E,G,] (A,B,)[E,C] | [D,D]3 [D,B,]2 [D,F,] [C,=E,]2 [C,E,] | %6
 [D,F,]3- [D,F,]!pp! z [D,F,] [C,F,]2 [C,=E,] | [F,,F,]3 [F,,F,]2 z [G,B,]3 | %8
 A,3 [A,C]2 [G,C] C2 [A,C] | B,2 [A,C] [=E,D]2 [F,C] [B,,_B,]2 [=B,,A,] | %10
 [C,G,]3- [C,G,] z!pp! [F,,F,] [G,,=D,]2 [=B,,G,] | [C,G,]3 z3 [B,C]3 | %12
 [A,-C]3 [A,F]2 [D_F] ([CE][B,D])[A,C] | [G,B,]3 [A,C]2 [D,B,] [E,B,]2 [G,E] | %14
 [A,E]3- [A,E]!pp! z [C,A,] [D,D]2 [E,B,] | [A,,E,A,]3- [A,,E,A,]2 z |] %16
V:4
 A,3 | A,3- A,2 A, A,2 x | x3 A,2 x4 | x18 | x3 E,2 E,2 x2 | x9 | x9 | x9 | A,3- (F,G,) x4 | %9
 =B,2 x7 | x9 | x9 | x9 | x9 | x9 | x6 |] %16

